!!!OTL: Hezuohua wadiaole qionggen
!!!ARE: Asia, China,ÿQinghai Huzhu
!! I, 233
!!!SCT: C2076
!!!YEM: Copyright 1995, estate of Helmut Schaffrath.
**kern
*ICvox
*Ivox
*M3/4
*k[b-e-]
*B-:
{4cc
4dd
4cc
=1
4ff
4gg
4bb-
=2
[2.ccc
=3
2.ccc_
=4
8ccc]
8ddd
4fff
4ggg
=5
4bb-
4gg
4bb-
=6
8gg
8ff
[2ff
=7
2.ff_
=8
2.ff]}
=9
{4r
4cc
8dd
8ff
=10
4ff
4gg
4bb-
=11
4ccc
4ddd
4fff
=12
4ggg
4fff
8ggg
8bb-}
=13
{4bb-
4bb-
4gg
=14
4gg
4gg
4bb-
=15
8gg
8bb-
4ff
4gg
=16
8ff
8gg
2ff
=17
[2.ff
=18
2.ff]}
==
!!!AGN: Shange, Tuzuling
!! Tuzu
!!!ONB: ESAC (Essen Associative Code) Database: SENGANSU
!!!AMT: simple triple
!!!AIN: vox
!!!EED: Helmut Schaffrath
!!!EEV: 1.0
*-
!!!ONB: Tied note syntax fixed by Craig Sapp, 2004/05/03/
